packages/icons/svgs/duotone/Source=coins.svg

<svg width="24" height="24" viewBox="0 0 24 24" fill="none" xmlns="http://www.w3.org/2000/svg">
<g clip-path="url(#clip0_1726_837)">
<g opacity="0.5">
<path fill-rule="evenodd" clip-rule="evenodd" d="M1 3C1.55228 3 2 3.44772 2 4V8C2 8.24573 2.2251 8.73726 3.20446 9.22695C4.12407 9.68675 5.46455 10 7 10C8.53545 10 9.87593 9.68675 10.7955 9.22695C11.7749 8.73726 12 8.24573 12 8V4C12 3.44772 12.4477 3 13 3C13.5523 3 14 3.44772 14 4V8C14 9.41127 12.8821 10.4197 11.69 11.0158C10.4381 11.6417 8.77855 12 7 12C5.22145 12 3.56193 11.6417 2.31004 11.0158C1.1179 10.4197 0 9.41127 0 8V4C0 3.44772 0.447715 3 1 3Z" fill="black" style="fill:black;fill-opacity:1;"/>
<path fill-rule="evenodd" clip-rule="evenodd" d="M1 7C1.55228 7 2 7.44772 2 8V12C2 12.2457 2.2251 12.7373 3.20446 13.2269C4.12407 13.6868 5.46455 14 7 14C8.42095 14 9.67891 13.7304 10.5917 13.3221C11.0959 13.0967 11.6874 13.3226 11.9129 13.8267C12.1383 14.3309 11.9124 14.9224 11.4083 15.1479C10.1971 15.6896 8.65305 16 7 16C5.22145 16 3.56193 15.6417 2.31004 15.0158C1.1179 14.4197 0 13.4113 0 12V8C0 7.44772 0.447715 7 1 7Z" fill="black" style="fill:black;fill-opacity:1;"/>
<path fill-rule="evenodd" clip-rule="evenodd" d="M1 11C1.55228 11 2 11.4477 2 12V16C2 16.2457 2.2251 16.7373 3.20446 17.2269C4.12407 17.6868 5.46455 18 7 18C8.42167 18 9.68033 17.7312 10.5914 17.3233C11.0955 17.0976 11.687 17.3233 11.9127 17.8274C12.1384 18.3315 11.9127 18.923 11.4086 19.1487C10.1977 19.6908 8.65233 20 7 20C5.22145 20 3.56193 19.6417 2.31004 19.0158C1.1179 18.4197 0 17.4113 0 16V12C0 11.4477 0.447715 11 1 11Z" fill="black" style="fill:black;fill-opacity:1;"/>
<path fill-rule="evenodd" clip-rule="evenodd" d="M3.20457 2.77311C2.22509 3.26285 2 3.7544 2 4C2 4.2456 2.22509 4.73715 3.20457 5.22689C4.12424 5.68673 5.46473 6 7 6C8.53527 6 9.87576 5.68673 10.7954 5.22689C11.7749 4.73715 12 4.2456 12 4C12 3.7544 11.7749 3.26285 10.7954 2.77311C9.87576 2.31327 8.53527 2 7 2C5.46473 2 4.12424 2.31327 3.20457 2.77311ZM2.31015 0.984252C3.56205 0.3583 5.22156 0 7 0C8.77844 0 10.4379 0.3583 11.6899 0.984252C12.8819 1.5803 14 2.58874 14 4C14 5.41126 12.8819 6.4197 11.6899 7.01575C10.4379 7.6417 8.77844 8 7 8C5.22156 8 3.56205 7.6417 2.31015 7.01575C1.11805 6.4197 0 5.41126 0 4C0 2.58874 1.11805 1.5803 2.31015 0.984252Z" fill="black" style="fill:black;fill-opacity:1;"/>
</g>
<path fill-rule="evenodd" clip-rule="evenodd" d="M11 11C11.5523 11 12 11.4477 12 12V16C12 16.2457 12.2251 16.7373 13.2045 17.2269C14.1241 17.6868 15.4646 18 17 18C18.5354 18 19.8759 17.6868 20.7955 17.2269C21.7749 16.7373 22 16.2457 22 16V12C22 11.4477 22.4477 11 23 11C23.5523 11 24 11.4477 24 12V16C24 17.4113 22.8821 18.4197 21.69 19.0158C20.4381 19.6417 18.7786 20 17 20C15.2214 20 13.5619 19.6417 12.31 19.0158C11.1179 18.4197 10 17.4113 10 16V12C10 11.4477 10.4477 11 11 11Z" fill="black" style="fill:black;fill-opacity:1;"/>
<path fill-rule="evenodd" clip-rule="evenodd" d="M11 15C11.5523 15 12 15.4477 12 16V20C12 20.2457 12.2251 20.7373 13.2045 21.2269C14.1241 21.6868 15.4646 22 17 22C18.5354 22 19.8759 21.6868 20.7955 21.2269C21.7749 20.7373 22 20.2457 22 20V16C22 15.4477 22.4477 15 23 15C23.5523 15 24 15.4477 24 16V20C24 21.4113 22.8821 22.4197 21.69 23.0158C20.4381 23.6417 18.7786 24 17 24C15.2214 24 13.5619 23.6417 12.31 23.0158C11.1179 22.4197 10 21.4113 10 20V16C10 15.4477 10.4477 15 11 15Z" fill="black" style="fill:black;fill-opacity:1;"/>
<path fill-rule="evenodd" clip-rule="evenodd" d="M13.2046 10.7731C12.2251 11.2628 12 11.7544 12 12C12 12.2456 12.2251 12.7372 13.2046 13.2269C14.1242 13.6867 15.4647 14 17 14C18.5353 14 19.8758 13.6867 20.7954 13.2269C21.7749 12.7372 22 12.2456 22 12C22 11.7544 21.7749 11.2628 20.7954 10.7731C19.8758 10.3133 18.5353 10 17 10C15.4647 10 14.1242 10.3133 13.2046 10.7731ZM12.3101 8.98425C13.5621 8.3583 15.2216 8 17 8C18.7784 8 20.4379 8.3583 21.6899 8.98425C22.8819 9.5803 24 10.5887 24 12C24 13.4113 22.8819 14.4197 21.6899 15.0157C20.4379 15.6417 18.7784 16 17 16C15.2216 16 13.5621 15.6417 12.3101 15.0157C11.1181 14.4197 10 13.4113 10 12C10 10.5887 11.1181 9.5803 12.3101 8.98425Z" fill="black" style="fill:black;fill-opacity:1;"/>
</g>
<defs>
<clipPath id="clip0_1726_837">
<rect width="24" height="24" fill="white" style="fill:white;fill-opacity:1;"/>
</clipPath>
</defs>
</svg>

<svg xmlns="http://www.w3.org/2000/svg" width="24" height="24" viewBox="0 0 24 24"><g fill-rule="evenodd" clip-path="url(#a)" clip-rule="evenodd"><g opacity=".55"><path d="M1 3a1 1 0 0 1 1 1v4c0 .246.225.737 1.204 1.227.92.46 2.26.773 3.796.773 1.535 0 2.876-.313 3.796-.773C11.775 8.737 12 8.246 12 8V4a1 1 0 1 1 2 0v4c0 1.411-1.118 2.42-2.31 3.016C10.438 11.642 8.779 12 7 12s-3.438-.358-4.69-.984C1.118 10.42 0 9.41 0 8V4a1 1 0 0 1 1-1"/><path d="M1 7a1 1 0 0 1 1 1v4c0 .246.225.737 1.204 1.227.92.46 2.26.773 3.796.773 1.42 0 2.679-.27 3.592-.678a1 1 0 0 1 .816 1.826C10.198 15.69 8.653 16 7 16c-1.779 0-3.438-.358-4.69-.984C1.118 14.42 0 13.41 0 12V8a1 1 0 0 1 1-1"/><path d="M1 11a1 1 0 0 1 1 1v4c0 .246.225.737 1.204 1.227.92.46 2.26.773 3.796.773 1.422 0 2.68-.269 3.591-.677a1 1 0 1 1 .818 1.826C10.198 19.69 8.652 20 7 20c-1.779 0-3.438-.358-4.69-.984C1.118 18.42 0 17.41 0 16v-4a1 1 0 0 1 1-1m2.205-8.227C2.225 3.263 2 3.754 2 4s.225.737 1.205 1.227C4.125 5.687 5.465 6 7 6s2.876-.313 3.795-.773C11.775 4.737 12 4.246 12 4s-.225-.737-1.205-1.227C9.875 2.313 8.535 2 7 2s-2.876.313-3.795.773M2.31.984C3.562.358 5.222 0 7 0s3.438.358 4.69.984C12.882 1.58 14 2.59 14 4s-1.118 2.42-2.31 3.016C10.438 7.642 8.778 8 7 8s-3.438-.358-4.69-.984C1.118 6.42 0 5.41 0 4S1.118 1.58 2.31.984"/></g><path d="M11 11a1 1 0 0 1 1 1v4c0 .246.225.737 1.204 1.227.92.46 2.26.773 3.796.773 1.535 0 2.876-.313 3.796-.773C21.775 16.737 22 16.246 22 16v-4a1 1 0 1 1 2 0v4c0 1.411-1.118 2.42-2.31 3.016-1.252.626-2.911.984-4.69.984s-3.438-.358-4.69-.984C11.118 18.42 10 17.41 10 16v-4a1 1 0 0 1 1-1"/><path d="M11 15a1 1 0 0 1 1 1v4c0 .246.225.737 1.204 1.227.92.46 2.26.773 3.796.773 1.535 0 2.876-.313 3.796-.773C21.775 20.737 22 20.246 22 20v-4a1 1 0 1 1 2 0v4c0 1.411-1.118 2.42-2.31 3.016-1.252.626-2.911.984-4.69.984s-3.438-.358-4.69-.984C11.118 22.42 10 21.41 10 20v-4a1 1 0 0 1 1-1"/><path d="M13.205 10.773c-.98.49-1.205.981-1.205 1.227s.225.737 1.205 1.227c.92.46 2.26.773 3.795.773s2.876-.313 3.795-.773C21.775 12.737 22 12.246 22 12s-.225-.737-1.205-1.227c-.92-.46-2.26-.773-3.795-.773s-2.876.313-3.795.773m-.895-1.789C13.562 8.358 15.222 8 17 8s3.438.358 4.69.984C22.882 9.58 24 10.59 24 12s-1.118 2.42-2.31 3.016c-1.252.626-2.912.984-4.69.984s-3.438-.358-4.69-.984C11.118 14.42 10 13.41 10 12s1.118-2.42 2.31-3.016"/></g><defs><clipPath id="a"><path fill="#fff" d="M0 0h24v24H0z"/></clipPath></defs></svg>
